X:225
T:The Kennebec 
R:reel
C:Bruce Osborne - Aug. 2002
Z:abc by bosborne@kos.net
M:2/4
L:1/8
K:Dmaj
A,/C/|DD/F/ E/D/C/E/|D/F/A/F/ B/F/A/F/|E/D/E/F/ G/E/C/E/|D/C/D/E/ FA,/C/|\
DD/F/ E/D/C/E/|D/F/A/F/ B/F/A/F/|E/D/E/F/ G/E/C/E/|D/C/D/E/ D:|
|:F/A/|dd d/c/B/A/|F/A/D/F/ A/F/B/F/|D/F/A/F/ E/D/C/D/|E/G/F/D/ EF/A/|\
dd d/c/B/A/|F/A/D/F/ A/F/B/F/|D/F/A/F/ E/D/C/D/|E/G/F/E/ D:|
